src/media/icons/linkedIn.svg

<svg width="25" height="25" viewBox="0 0 25 25" fill="none" xmlns="http://www.w3.org/2000/svg">
<g clip-path="url(#clip0_147_107)">
<path d="M23.1494 0H1.8457C0.825195 0 0 0.805664 0 1.80176V23.1934C0 24.1895 0.825195 25 1.8457 25H23.1494C24.1699 25 25 24.1895 25 23.1982V1.80176C25 0.805664 24.1699 0 23.1494 0ZM7.41699 21.3037H3.70605V9.37012H7.41699V21.3037ZM5.56152 7.74414C4.37012 7.74414 3.4082 6.78223 3.4082 5.5957C3.4082 4.40918 4.37012 3.44727 5.56152 3.44727C6.74805 3.44727 7.70996 4.40918 7.70996 5.5957C7.70996 6.77734 6.74805 7.74414 5.56152 7.74414ZM21.3037 21.3037H17.5977V15.5029C17.5977 14.1211 17.5732 12.3389 15.6689 12.3389C13.7402 12.3389 13.4473 13.8477 13.4473 15.4053V21.3037H9.74609V9.37012H13.3008V11.001H13.3496C13.8428 10.0635 15.0537 9.07227 16.8555 9.07227C20.6104 9.07227 21.3037 11.543 21.3037 14.7559V21.3037V21.3037Z" fill="white"/>
</g>
<defs>
<clipPath id="clip0_147_107">
<rect width="25" height="25" fill="white"/>
</clipPath>
</defs>
</svg>

<svg xmlns="http://www.w3.org/2000/svg" fill="none" viewBox="0 0 25 25">
    <g clip-path="url(#a)">
        <path fill="#fff"
            d="M23.15 0H1.845C.826 0 0 .806 0 1.802v21.391C0 24.19.825 25 1.846 25h21.303C24.17 25 25 24.19 25 23.198V1.802C25 .806 24.17 0 23.15 0ZM7.416 21.304h-3.71V9.37h3.711v11.934ZM5.562 7.744a2.15 2.15 0 1 1 0-4.297 2.148 2.148 0 0 1 0 4.297Zm15.742 13.56h-3.706v-5.801c0-1.382-.025-3.164-1.93-3.164-1.928 0-2.22 1.509-2.22 3.066v5.899H9.745V9.37H13.3v1.631h.049c.493-.938 1.704-1.929 3.505-1.929 3.755 0 4.449 2.471 4.449 5.684v6.548Z" />
    </g>
    <defs>
        <clipPath id="a">
            <path fill="#fff" d="M0 0h25v25H0z" />
        </clipPath>
    </defs>
</svg>
